X: 39899
T: Thistle Schottische, The
R: barndance
M: 4/4
K: Gmajor
ABc|d2 BG E2 _E2|D6 Bc|d2 BG EFG^G|A6 BF|
AGB,C D2 FG|AA,BB, cC ^c2|dedB AGEF|G4- GABc|
dBBG EG_EG|D4- DABc|dGBG AEFG|Afe^c d2 BF|
AGEG DGEG|AA,BB, c2 Bc|d2- dB AGEF|G2 G2 GD||
B,C|D4- DB,CB,|E4- EA^GA|BA^GA dAGA|D6 BF|
AGB,C D2 GG,|AA,BB, cC ^c2|d^cdB AGEF|G4- GB,C^C|
D4- DB,CB,|E6 FG|A2 ^GA dcGA|B6 BF|
AGEG DGEG|AA,BB, c2 ^c2|d2 dB AGEF|G2 F2 GA||
Bc|dgBd GBdG|ceAc EecA|FAfe d2 cA|G2 BE D2 Bc|
d2 Bd G2 DB|c2 Ac E2 AG|FAfe dcBA|G2 B2 c2 ^c2|
dg B2 GdgB|ce A2 EAcA|FA f2 decA|GB g2 d^c=cA|
d2 B2 G2 gd|e2 c2 A2 EG|FAfe d^c=cA|G2 g2 G||

